!!!!SEGMENT: pl-wru--50044-muz--019_buchner-philipp-friedrich--plectrum-musicum-sonata-xix.krn
!!!cenid: 16xx:1820
!!!COM: Buchner, Philipp Friedrich
!!!COM-rismID: pe30013776
!!!CDT:
!!!CNT:
!!!GTL: Plectrum musicum
!!!OTL: Sonata XIX
!!!PDT: 1662
!!!AGN:
!!!SMS-siglum: PL-WRu
!!!SMS-shelfmark: 50044 Muz.
!!!SMS-shelfwork: 019 G
!!!SMS-variant:
!!!SMS-altvar:
!!!NIFC-rismSourceID: 990007465
!!!NIFC-rismChildID: 990007465
!!!NIFC-islandoraID:
!!!URL-pdf-islandora:
!!!URL-scan: https://www.bibliotekacyfrowa.pl/dlibra/doccontent?id=116
!!!ONB-nifc: UWAGA: Violino I: s. 17, Violino II: s. 31, Viola da braccio: s. 37, Fagotto: s. 62, Bassus: s. 76, Bassus continuus: s. 91
!!!AIN: 1 fagot 2 violn
!!!key: d
**kern	**fba	**kern	**fba	**kern	**kern	**kern	**kern
*part6	*part6	*part5	*part5	*part4	*part3	*part2	*part1
*staff6	*	*staff5	*	*staff4	*staff3	*staff2	*staff1
*I"BASSUS CONTINUUS.	*	*I"BASSUS	*	*I"VIOLA DA BRACCIO.	*I"VIOLINO II.	*I"VIOLINO I.	*I"FAGOTTO
*I'bc	*	*I'b	*	*I'vla da braccio	*I'vl 2	*I'vl 1	*I'fag
*	*	*	*	*ICstr	*ICstr	*ICstr	*ICww
*	*	*	*	*	*Ivioln	*Ivioln	*Ifagot
*IGcont	*	*IGcont	*	*	*	*	*
*clefF4	*	*clefF4	*	*clefC3	*clefG2	*clefG2	*clefF4
*k[]	*	*k[]	*	*k[]	*k[]	*k[]	*k[]
*d:	*	*d:	*	*d:	*d:	*d:	*d:
*M3/2	*	*M3/2	*	*M3/2	*M3/2	*M3/2	*M3/2
=1-	=1-	=1-	=1-	=1-	=1-	=1-	=1-
!LO:TX:b:t=adagio.	!	!LO:TX:b:t=adagio.	!	!LO:TX:a:t=Sonata XIX.	!LO:TX:a:t=Sonata XIX.	!LO:TX:b:t=Adagio.	!LO:TX:a:t=Sonata XIX.
!LO:TX:a:t=Sonata XIX.	!	!LO:TX:a:t=Sonata XIX.	!	!LO:TX:b:t=adagio.	!LO:TX:b:t=Adagio.	!LO:TX:a:t=Sonata XIX.	!LO:TX:b:t=adagio.
2.D/	.	2.D/	.	2.f\	2.dd\	2aa\	2.D/
.	.	.	.	.	.	4ff\	.
4D/	.	4D/	.	4f\	4dd\	4aa\	4D/
2C/	.	2C/	.	2g\	2ee\	4ccc\	2C/
.	.	.	.	.	.	4gg\	.
=2-	=2-	=2-	=2-	=2-	=2-	=2-	=2-
1F	.	1F	.	2.f\	2ff\	2aa\	2.FF/
.	.	.	.	.	2.ff\	2.aa\	.
.	.	.	.	4c/	.	.	4F\
!LO:TX:t=P:problem:kreska pseudotaktowa	!	!LO:TX:t=P:problem:kreska pseudotaktowa	!	!	!	!	!LO:TX:t=P:problem:kreska pseudotaktowa
2C/	6:5 4:3	2C/	6:5 4:3	2c/	.	.	2C/
!	!	!	!	!	!LO:TX:t=P:problem:kreska pseudotaktowa	!LO:TX:t=P:problem:kreska pseudotaktowa	!
.	.	.	.	.	4ee\	4gg\	.
=3-	=3-	=3-	=3-	=3-	=3-	=3-	=3-
2D/	.	2D/	.	2.A/	2dd\	2ff\	2D/
*col	*	*col	*	*	*	*	*col
1A	.	1A	.	.	2.cc\	2.ee\	1A
.	.	.	.	4B/	.	.	.
!	!	!	!	!LO:TX:t=P:problem:kreska pseudotaktowa	!	!	!
.	.	.	.	2c/	.	.	.
.	.	.	.	.	4dd\	4ff\	.
*Xcol	*	*Xcol	*	*	*	*	*Xcol
=4-	=4-	=4-	=4-	=4-	=4-	=4-	=4-
2B-X\	.	2B-X\	.	2d\	4b-X/	4dd\	2B-X\
.	.	.	.	.	4dd\	4ff\	.
2F\	.	2F\	.	2c/	4ff\	4gg\	2F\
.	.	.	.	.	4a/	4ff\	.
!LO:TX:t=P:problem:kreska pseudotaktowa	!	!LO:TX:t=P:problem:kreska pseudotaktowa	!	!	!	!	!
2G\	-	2G\	-	4g\	4b-X/	4dd\	2G\
!	!	!	!	!	!LO:TX:t=P:problem:kreska pseudotaktowa	!	!
.	.	.	.	4f\	4dd\	4bb-X\	.
=5-	=5-	=5-	=5-	=5-	=5-	=5-	=5-
2A\	#	2A\	#	2e\	2cc#X\	2aa\	2A\
*col	*	*col	*	*	*	*	*
1B-X	6	1B-X	6	2.d\	2.dd\	2.gg\	2.B-X\
.	.	.	.	4d\	4dd\	4gg\	4B-\
*Xcol	*	*Xcol	*	*	*	*	*
=6-	=6-	=6-	=6-	=6-	=6-	=6-	=6-
!LO:TX:t=P:problem:kreska pseudotaktowa	!	!LO:TX:t=P:problem:kreska pseudotaktowa	!	!	!LO:TX:t=P:problem:kreska pseudotaktowa	!	!
1.A	#	1.A	#	1.e	1.cc#X	1.aa	1.A
=7-	=7-	=7-	=7-	=7-	=7-	=7-	=7-
2A\	#	2A\	#	2c#X/	2a/	2ee\	2A\
2.D/	#	2.D/	#	2.d\	2.a/	2.ff#X\	2.D/
4D/	.	4D/	.	4d\	4a/	4ff#\	4D/
=8-	=8-	=8-	=8-	=8-	=8-	=8-	=8-
!LO:TX:t=P:problem:kreska pseudotaktowa	!	!LO:TX:t=P:problem:kreska pseudotaktowa	!	!	!	!	!
1.G	.	1.G	.	1.d	1.bny	1.gg	1.G
=9-	=9-	=9-	=9-	=9-	=9-	=9-	=9-
2G\	.	2G\	.	2B/	2g/	2dd\	2G\
2.C/	.	2.C/	.	2.cny/	2.g/	2.ee\	2.C/
4C/	.	4C/	.	4c/	4g/	4ee\	4C/
=10-	=10-	=10-	=10-	=10-	=10-	=10-	=10-
!LO:TX:t=P:problem:kreska pseudotaktowa	!	!LO:TX:t=P:problem:kreska pseudotaktowa	!	!	!	!	!
1.F	.	1.F	.	1.c	4a/	1.ffny	1.F
.	.	.	.	.	4f/	.	.
.	.	.	.	.	2.a/	.	.
.	.	.	.	.	4g/	.	.
*	*	*	*	*	*custos:f	*	*
!	!	!	!	!	!LO:LB:g=original	!	!
=11-	=11-	=11-	=11-	=11-	=11-	=11-	=11-
2D/	-	2D/	-	2r	2f/	2r	2D/
2.G\	.	2.G\	.	2r	2.b-X/	2dd\	2.G\
.	.	.	.	2d\	.	2.gg\	.
!	!	!	!	!	!LO:TX:t=P:problem:kreska pseudotaktowa	!	!LO:TX:t=P:problem:kreska pseudotaktowa
4F\	.	4F\	.	.	4a/	.	4F\
=12-	=12-	=12-	=12-	=12-	=12-	=12-	=12-
2E\	.	2E\	.	2.e\	2g/	.	2E\
.	.	.	.	.	.	4ff\	.
2.A\	.	2.A\	.	.	2.ccny\	2ee\	2.A\
.	.	.	.	4d\	.	.	.
!	!	!	!	!LO:TX:t=P:problem:kreska pseudotaktowa	!	!LO:TX:t=P:problem:kreska pseudotaktowa:między nutą a kropką	!
.	.	.	.	2c/	.	2.aa\	.
!LO:TX:t=P:problem:kreska pseudotaktowa	!	!LO:TX:t=P:problem:kreska pseudotaktowa	!	!	!	!	!
4G\	.	4G\	.	.	4bny/	.	4G\
=13-	=13-	=13-	=13-	=13-	=13-	=13-	=13-
2F\	.	2F\	.	2.f\	2a/	.	2F\
.	.	.	.	.	.	4gg\	.
2.B-X\	.	2.B-X\	.	.	2.dd\	2ff\	2.B-X\
.	.	.	.	4e\	.	.	.
*	*	*	*	*	*	*custos:bb-	*
!	!	!	!	!	!	!LO:LB:g=original	!
.	.	.	.	2d\	.	2.bb-X\	.
!	!	!	!	!	!LO:TX:t=P:problem:kreska pseudotaktowa	!	!
4A\	.	4A\	.	.	4cc\	.	4A\
*custos:G	*	*custos:G	*	*custos:g	*	*	*custos:G
!LO:LB:g=original	!	!LO:LB:g=original	!	!LO:LB:g=original	!	!	!LO:LB:g=original
=14-	=14-	=14-	=14-	=14-	=14-	=14-	=14-
2G\	-	2G\	-	4g\	2b-X/	.	2G\
.	.	.	.	4f\	.	4aa\	.
2.c\	.	2.c\	.	4e\	2r	4gg\	2.c\
.	.	.	.	4d\	.	4ff\	.
!	!	!	!	!	!LO:TX:t=P:problem:kreska pseudotaktowa:między nutą a kropką	!	!
.	.	.	.	4c/	2.cc\	4ee\	.
!LO:TX:t=P:problem:kreska pseudotaktowa	!	!LO:TX:t=P:problem:kreska pseudotaktowa	!	!LO:TX:t=P:problem:kreska pseudotaktowa	!	!	!
4B-X\	.	4B-X\	.	4d\	.	4dd\	4B-X\
=15-	=15-	=15-	=15-	=15-	=15-	=15-	=15-
4A\	.	4A\	.	2e\	.	2cc\	4A\
4G\	.	4G\	.	.	4bny/	.	4G\
2F\	6	2F\	6	2f\	2a/	2dd\	2F\
!	!	!	!	!	!	!	!LO:TX:t=P:problem:kreska pseudotaktowa
2E\	6	2E\	6	2c/	2g/	2ee\	2E\
=16-	=16-	=16-	=16-	=16-	=16-	=16-	=16-
2D/	.	2D/	.	1d	1.a	2ff\	2D/
!LO:TX:t=P:problem:kreska pseudotaktowa	!	!LO:TX:t=P:problem:kreska pseudotaktowa	!	!	!	!	!
*col	*	*col	*	*	*	*col	*col
1AA	4#r	1AA	4#r	.	.	1ee	1AA
.	.	.	.	2c#X/	.	.	.
*Xcol	*	*Xcol	*	*	*	*Xcol	*Xcol
=17-	=17-	=17-	=17-	=17-	=17-	=17-	=17-
2.D/	.	2.D/	.	1d	2a/	4dd\	2.D/
.	.	.	.	.	.	4ee\	.
.	.	.	.	.	4aa\	4ff\	.
4E\	.	4E\	.	.	4gg\	4gg\	4E\
4F\	6	4F\	6	2d\	2ff\	4aa\	4F\
4G\	.	4G\	.	.	.	4bbny\	4G\
=18-	=18-	=18-	=18-	=18-	=18-	=18-	=18-
2A\	.	2A\	.	2cny/	1ff	2ccc\	2A\
2B-X\	6 5	2B-X\	6 5	2d\	.	2.gg\	2B-X\
2c\	.	2c\	.	2c/	2ee\	.	2c\
!	!	!	!	!	!	!LO:TX:t=P:problem:kreska pseudotaktowa	!
.	.	.	.	.	.	4gg\	.
=19-	=19-	=19-	=19-	=19-	=19-	=19-	=19-
2F\	.	2F\	.	1.c	2ff\	2ff\	2F\
*col	*	*col	*	*	*	*col	*col
1C	5	1C	5	.	1ee	1gg	1C
*Xcol	*	*Xcol	*	*	*	*Xcol	*Xcol
=20-	=20-	=20-	=20-	=20-	=20-	=20-	=20-
2C#X/	6	2C#X/	6	2A/	2ee\	2aa\	2C#X/
*col	*	*col	*	*col	*	*col	*col
1D	.	1D	.	1A	1dd	1ff	1D
*Xcol	*	*Xcol	*	*Xcol	*	*Xcol	*Xcol
=21-	=21-	=21-	=21-	=21-	=21-	=21-	=21-
1.AA	.	1.AA	.	1.A	1.cc#X	1.ee	1.AA
=!|:-	=!|:-	=!|:-	=!|:-	=!|:-	=!|:-	=!|:-	=!|:-
*M2/2	*	*M2/2	*	*M2/2	*M2/2	*M2/2	*M2/2
*met(C|)	*	*met(C|)	*	*met(C|)	*met(C|)	*met(C|)	*met(C|)
!LO:TX:b:t=allegro.	!	!LO:TX:b:t=allegro.	!	!LO:TX:b:t=allegro.	!LO:TX:b:t=allegro.	!LO:TX:b:t=allegro.	!LO:TX:b:t=allegro.
8r	.	8r	.	8r	8r	8r	8r
8A\	#	8A\	#	8a\	8cc#X\	8ee\	8A\
4A\	#	4A\	#	4a\	4cc#\	4ee\	4A\
*	*	*	*	*	*custos:cc#	*	*
!	!	!	!	!	!LO:LB:g=original	!	!
8r	.	8r	.	8r	8r	8r	8r
8A\	#	8A\	#	8a\	8cc#X\	8ee\	8A\
4D/	#	4D/	#	8.a\	8.dd\	8.ff#X\	8.D/
!	!	!	!	!LO:TX:t=P:problem:kreska pseudotaktowa	!LO:TX:t=P:problem:kreska pseudotaktowa	!LO:TX:t=P:problem:kreska pseudotaktowa	!LO:TX:t=P:problem:kreska pseudotaktowa
.	.	.	.	16a\	16dd\	16ff#\	16D/
=22-	=22-	=22-	=22-	=22-	=22-	=22-	=22-
8G\	.	8G\	.	8g\	8dd\	8gg\	8G\
8G\	.	8G\	.	8g\	8b/	8dd\	8G\
4G\	.	4G\	.	4g\	4b/	4dd\	4G\
8r	.	8r	.	8r	8r	8r	8r
8G\	.	8G\	.	8g\	8b/	8dd\	8G\
4Cny/	.	4Cny/	.	8.g\	8.ccny\	8.ee\	8.Cny/
!	!	!	!	!	!LO:TX:t=P:problem:kreska pseudotaktowa	!	!
.	.	.	.	16g\	16cc\	16ee\	16C/
*custos:F	*	*custos:F	*	*custos:f	*	*custos:ff	*custos:F
!LO:LB:g=original	!	!LO:LB:g=original	!	!LO:LB:g=original	!	!LO:LB:g=original	!LO:LB:g=original
=23-	=23-	=23-	=23-	=23-	=23-	=23-	=23-
4F\	.	4F\	.	8f\	8cc\	8ffny\	8F\
.	.	.	.	8f\	8cc\	8ff\	8F\
4.F\	.	4.F\	.	4.f\	4.cc\	4.aa\	4.F\
8E\	.	8E\	.	8g\	8cc\	8gg\	8E\
8F\	.	8F\	.	8f\	8cc\	8aa\	8F\
!LO:TX:t=P:problem:kreska pseudotaktowa	!	!LO:TX:t=P:problem:kreska pseudotaktowa	!	!	!	!	!LO:TX:t=P:problem:kreska pseudotaktowa
8D\	6	8D\	6	8f\	8dd\	8bb\	8D/
=24-	=24-	=24-	=24-	=24-	=24-	=24-	=24-
8C/	.	8C/	.	8e\	8g/	8ccc\	8C/
8E\	.	8E\	.	8g\	8cc\	8gg\	8E\
8F\	.	8F\	.	8a\	8a/	8ff\	8F\
8A\	5	8A\	5	8e\	8a/	8cc\	8A\
4G\	.	4G\	.	4g\	4b/	4dd\	8G\
.	.	.	.	.	.	.	8GG/
!LO:TX:t=P:problem:kreska pseudotaktowa:między nutą a kropką	!	!LO:TX:t=P:problem:kreska pseudotaktowa:między nutą a kropką	!	!	!	!	!
4.C/	.	4.C/	.	8e\	8g/	8ee\	8C/
.	.	.	.	4c/	4g/	4ee\	4C/
=25-	=25-	=25-	=25-	=25-	=25-	=25-	=25-
8BB/	.	8BB/	.	8d\	8g/	8dd\	8BB/
8C/	.	8C/	.	8c/	8g/	8ee\	8C/
8AA/	6 #	8AA/	6 #	8c/	8a/	8ff#X\	8AA/
8GG/	.	8GG/	.	8B/	8d/	8gg\	8GG/
8BB/	.	8BB/	.	8d\	8g/	8dd\	8BB/
8C/	.	8C/	.	8e\	8e/	8cc\	8C/
!LO:TX:t=P:problem:kreska pseudotaktowa	!	!LO:TX:t=P:problem:kreska pseudotaktowa	!	!	!LO:TX:t=P:problem:kreska pseudotaktowa	!LO:TX:t=P:problem:kreska pseudotaktowa	!LO:TX:t=P:problem:kreska pseudotaktowa
8E\	5	8E\	5	8B/	8e/	8g/	8E\
=26-	=26-	=26-	=26-	=26-	=26-	=26-	=26-
4D/	#	4D/	#	8d\	4f#X/	4a/	8D/
.	.	.	.	8f#X\	.	.	8D/
4.G\	.	4.G\	.	8g\	8d/	8b/	8G\
.	.	.	.	4g\	4dd\	4bb\	4G\
8F#X\	.	8F#X\	.	8a\	8dd\	8aa\	8F#X\
8G\	.	8G\	.	8g\	8dd\	8bb\	8G\
!LO:TX:t=P:problem:kreska pseudotaktowa	!	!LO:TX:t=P:problem:kreska pseudotaktowa	!	!LO:TX:t=P:problem:kreska pseudotaktowa	!	!LO:TX:t=P:problem:kreska pseudotaktowa	!LO:TX:t=P:problem:kreska pseudotaktowa
8E\	6 #	8E\	6 #	8g\	8ee\	8ccc#X\	8E\
*	*	*	*	*	*custos:a	*	*
!	!	!	!	!	!LO:LB:g=original	!	!
=27-	=27-	=27-	=27-	=27-	=27-	=27-	=27-
8D/	.	8D/	.	8f#X\	8a/	8ddd\	8D/
!	!	!	!	!	!	!	!LO:TX:t=P:problem:niezgodne piony harmoniczne?
8F#X\	.	8F#X\	.	8a\	8dd\	8aa\	8F#X\
8G\	.	8G\	.	8b-X\	8dd\	8gg\	8G\
8B-X\	5	8B-X\	5	8f#\	8dd\	8dd\	8B-X\
8A\	#	8A\	#	4a\	4cc#X\	4ee\	8A\
8AA/	.	8AA/	.	.	.	.	8AA/
!LO:TX:t=P:problem:kreska pseudotaktowa:między nutą a kropką	!	!LO:TX:t=P:problem:kreska pseudotaktowa:między nutą a kropką	!	!	!	!	!
4.D/	#	4.D/	#	8a\	8dd\	8ff#X\	8D/
.	.	.	.	8f#X\	4a/	4ff#X\	4D/
*custos:C#	*	*custos:C#	*	*custos:d	*	*	*
!LO:LB:g=original	!	!LO:LB:g=original	!	!LO:LB:g=original	!	!	!
=28-	=28-	=28-	=28-	=28-	=28-	=28-	=28-
.	.	.	.	8d\	.	.	.
8C#X/	.	8C#X/	.	8e\	8a/	8ee\	8C#X/
*	*	*	*	*	*	*	*custos:D
!	!	!	!	!	!	!	!LO:LB:g=original
8D/	#	8D/	#	8d\	8a/	8ff#X\	8D/
8BB/	6 #	8BB/	6 #	8d\	8b/	8gg#X\	8BB/
*	*	*	*	*	*	*custos:aa	*
!	!	!	!	!	!	!LO:PB:g=original	!
8AA/	.	8AA/	.	8e\	8cc#X\	8aa\	8AA/
8C#X/	.	8C#X/	.	8e\	8cc#\	8ee\	8C#X/
8D/	.	8D/	.	8f#\	8a/	8dd\	8D/
!	!	!	!	!LO:TX:t=P:problem:kreska pseudotaktowa	!LO:TX:t=P:problem:kreska pseudotaktowa	!LO:TX:t=P:problem:kreska pseudotaktowa	!LO:TX:t=P:problem:kreska pseudotaktowa
8F#\	.	8F#\	.	8c/	8a/	8a/	8F#\
=29-	=29-	=29-	=29-	=29-	=29-	=29-	=29-
4E\	#	4E\	#	4e\	4g#X/	4b/	4E\
4AA/	.	4AA/	.	4e\	4a/	4a/	4AA/
8r	.	8r	.	8r	8r	8r	8r
8A\	#	8A\	#	8a\	8cc#X\	8ee\	8A\
!LO:TX:t=P:problem:kreska pseudotaktowa	!	!LO:TX:t=P:problem:kreska pseudotaktowa	!	!LO:TX:t=P:problem:kreska pseudotaktowa	!LO:TX:t=P:problem:kreska pseudotaktowa	!LO:TX:t=P:problem:kreska pseudotaktowa	!LO:TX:t=P:problem:kreska pseudotaktowa
4A\	#	4A\	#	4a\	4cc#\	4ee\	4A\
=30-	=30-	=30-	=30-	=30-	=30-	=30-	=30-
8r	.	8r	.	8r	8r	8r	8r
8A\	#	8A\	#	8a\	8cc#X\	8ee\	8A\
4D/	#	4D/	#	8.a\	8.dd\	8.ff#X\	8.D/
.	.	.	.	16a\	16dd\	16ff#\	16D/
4G\	.	4G\	.	4bny\	4dd\	8ggny\	4G\
.	.	.	.	.	.	8d/	.
!LO:TX:t=P:problem:kreska pseudotaktowa	!	!LO:TX:t=P:problem:kreska pseudotaktowa	!	!	!	!LO:TX:t=P:problem:kreska pseudotaktowa:między nutą a kropką	!
4GG/	.	4GG/	.	8r	8r	4.g/	8r
!	!	!	!	!LO:TX:t=P:problem:kreska pseudotaktowa	!LO:TX:t=P:problem:kreska pseudotaktowa	!	!
.	.	.	.	8B/	8d/	.	8GG/
=31-	=31-	=31-	=31-	=31-	=31-	=31-	=31-
4.Cny/	5:6	4.Cny/	5:6	4.e\	4.d/	.	4.Cny/
.	.	.	.	.	.	8e/	.
.	.	.	.	.	.	4.a/	.
8AA/	.	8AA/	.	8c#X/	8e/	.	8AA/
4.D/	5:6 #	4.D/	5:6 #	4.f#X\	4.d/	.	4.D/
.	.	.	.	.	.	8f#X/	.
!	!	!	!	!	!	!LO:TX:t=P:problem:kreska pseudotaktowa:między nutą a kropką	!
.	.	.	.	.	.	4.b/	.
8BB/	.	8BB/	.	8d\	8f#X/	.	8BB/
=32-	=32-	=32-	=32-	=32-	=32-	=32-	=32-
4.E\	5:6	4.E\	5:6	4.g\	4.e/	.	4.E\
.	.	.	.	.	.	8g/	.
.	.	.	.	.	.	4.cc\	.
8C/	.	8C/	.	8e\	8gny/	.	8C/
4.Fny\	5:6	4.Fny\	5:6	4.a\	4.fny/	.	4.Fny\
.	.	.	.	.	.	8a/	.
!	!	!	!	!	!	!LO:TX:t=P:problem:kreska pseudotaktowa:między nutą a kropką	!
.	.	.	.	.	.	4.dd\	.
!	!	!	!	!LO:TX:t=P:problem:kreska pseudotaktowa	!	!	!
8D/	.	8D/	.	8f#\	8a/	.	8D/
*	*	*	*	*	*custos:g#	*	*
!	!	!	!	!	!LO:LB:g=original	!	!
=33-	=33-	=33-	=33-	=33-	=33-	=33-	=33-
4E\	7	4E\	7	1e	4g#X/	.	4E\
.	.	.	.	.	.	8b/	.
4AA/	.	4AA/	.	.	2a/	4cc\	4AA/
2E\	4#r	2E\	4#r	.	.	2b/	2EE/
.	.	.	.	.	4g#X/	.	.
=34-	=34-	=34-	=34-	=34-	=34-	=34-	=34-
1AA	.	1AA	.	1e	1a	1a	1AA
*clefC3	*	*clefC3	*	*	*	*	*
=:|!-	=:|!-	=:|!-	=:|!-	=:|!-	=:|!-	=:|!-	=:|!-
*M3/2	*	*M3/2	*	*M3/2	*M3/2	*M3/2	*M3/2
!LO:TX:b:t=adagio.	!	!LO:TX:b:t=adagio.	!	!LO:TX:b:t=adagio.	!LO:TX:b:t=adagio.	!LO:TX:b:t=adagio.	!LO:TX:b:t=adagio.
1e	-	1e	-	2.e\	2.gny/	4b/	00.r
.	.	.	.	.	.	4ee\	.
.	.	.	.	.	.	2.ee\	.
.	.	.	.	4e\	4g/	.	.
2f\	7:6	2f\	7:6	2fny\	2a/	.	.
.	.	.	.	.	.	4dd\	.
*	*	*	*	*custos:e	*	*custos:ee	*
!	!	!	!	!LO:LB:g=original	!	!LO:LB:g=original	!
=35-	=35-	=35-	=35-	=35-	=35-	=35-	=35-
4e\	.	4e\	.	4e\	4g/	2.ee\	.
4d\	.	4d\	.	4d\	4f/	.	.
4c/	.	4c/	.	4cny/	4e/	.	.
4Bny/	.	4Bny/	.	4B/	8f/	4dd\	.
.	.	.	.	.	8g/	.	.
2A/	.	2A/	.	2A/	4a/	4cc\	.
!	!	!	!	!	!LO:TX:t=P:problem:kreska pseudotaktowa	!LO:TX:t=P:problem:kreska pseudotaktowa	!
.	.	.	.	.	4g/	4b/	.
*custos:d	*	*custos:d	*	*	*	*	*
!LO:LB:g=original	!	!LO:LB:g=original	!	!	!	!	!
=36-	=36-	=36-	=36-	=36-	=36-	=36-	=36-
1d	-	1d	-	2.d\	2.f/	4a/	.
.	.	.	.	.	.	4dd\	.
.	.	.	.	.	.	2.dd\	.
.	.	.	.	4d\	4f/	.	.
2e\	7:6	2e\	7:6	2e\	2g/	.	.
.	.	.	.	.	.	4cc\	.
=37-	=37-	=37-	=37-	=37-	=37-	=37-	=37-
4d\	.	4d\	.	4d\	4f/	2.dd\	.
4c/	.	4c/	.	4c/	4e/	.	.
4B/	.	4B/	.	4B/	4d/	.	.
4A/	.	4A/	.	4A/	8e/	4cc\	.
.	.	.	.	.	8f/	.	.
!LO:TX:t=P:problem:kreska pseudotaktowa	!	!LO:TX:t=P:problem:kreska pseudotaktowa	!	!LO:TX:t=P:problem:kreska pseudotaktowa	!	!	!
2G/	.	2G/	.	2G/	4g/	4b/	.
!	!	!	!	!	!LO:TX:t=P:problem:kreska pseudotaktowa	!LO:TX:t=P:problem:kreska pseudotaktowa	!
.	.	.	.	.	4a/	4a/	.
=38-	=38-	=38-	=38-	=38-	=38-	=38-	=38-
1g	-	1g	-	2.g\	2.b/	4g/	00.r
.	.	.	.	.	.	4gg\	.
.	.	.	.	.	.	2.gg\	.
.	.	.	.	4g\	4b/	.	.
2a\	7:6	2a\	7:6	2a\	2ccny\	.	.
.	.	.	.	.	.	4ffny\	.
=39-	=39-	=39-	=39-	=39-	=39-	=39-	=39-
4g\	.	4g\	.	4g\	4b/	2.gg\	.
4f\	.	4f\	.	4f\	4a/	.	.
4e\	.	4e\	.	4e\	4g/	.	.
4d\	.	4d\	.	4d\	8a/	4ff\	.
.	.	.	.	.	8b/	.	.
[<2c/	5	[<2c/	5	1c\	4cc\	4ee\	.
!	!	!	!	!	!	!LO:TX:t=P:problem:kreska pseudotaktowa	!
.	.	.	.	.	4b/	4dd\	.
*	*	*	*	*	*custos:a	*	*
!	!	!	!	!	!LO:LB:g=original	!	!
=40-	=40-	=40-	=40-	=40-	=40-	=40-	=40-
2c/]	6	2c/]	6	.	4a/	4cc\	.
.	.	.	.	.	4g/	4b/	.
2.d\	-	2.d\	-	2.d\	2.f/	2.a/	.
4A/	.	4A/	.	4A/	4a/	4cc\	.
=41-	=41-	=41-	=41-	=41-	=41-	=41-	=41-
!	!	!	!	!LO:TX:t=P:problem:kreska pseudotaktowa	!LO:TX:t=P:problem:kreska pseudotaktowa	!LO:TX:t=P:problem:kreska pseudotaktowa	!
1.e	#	1.e	#	1.e	1.g#X	1.b	.
*clefF4	*	*clefF4	*	*	*	*	*
=42-	=42-	=42-	=42-	=42-	=42-	=42-	=42-
1A	-	1A	-	2.e\	2.cc\	4a/	2.A\
.	.	.	.	.	.	4aa\	.
.	.	.	.	.	.	2.aa\	.
.	.	.	.	4e\	4cc\	.	4A\
2B-X\	7:6	2B-X\	7:6	2d\	2dd\	.	2B-X\
.	.	.	.	.	.	4gg\	.
*	*	*	*	*	*	*	*custos:A
!	!	!	!	!	!	!	!LO:LB:g=original
=43-	=43-	=43-	=43-	=43-	=43-	=43-	=43-
4A\	.	4A\	.	2e\	4cc\	2.aa\	4A\
4G\	.	4G\	.	.	4b/	.	4G\
4F\	.	4F\	.	2f\	4a/	.	4F\
4E\	.	4E\	.	.	8b/	4gg\	4E\
.	.	.	.	.	8cc\	.	.
!	!	!	!	!	!	!	!LO:TX:t=P:problem:kreska pseudotaktowa
2D/	.	2D/	.	2f\	4dd\	4ff\	2D/
!	!	!	!	!	!LO:TX:t=P:problem:kreska pseudotaktowa	!	!
.	.	.	.	.	4cc\	4ee\	.
*	*	*	*	*	*	*custos:dd	*
!	!	!	!	!	!	!LO:LB:g=original	!
=44-	=44-	=44-	=44-	=44-	=44-	=44-	=44-
1G	.	1G	.	2.g\	2.b/	4dd\	2.G\
.	.	.	.	.	.	4gg\	.
.	.	.	.	.	.	2.gg\	.
.	.	.	.	4d\	4b/	.	4G\
!	!	!	!	!LO:TX:t=P:problem:kreska pseudotaktowa	!	!	!
2A\	7:6	2A\	7:6	2c/	2cc\	.	2A\
.	.	.	.	.	.	4ff\	.
=45-	=45-	=45-	=45-	=45-	=45-	=45-	=45-
4G\	.	4G\	.	2d\	4b/	2.gg\	4G\
4F\	.	4F\	.	.	4a/	.	4F\
4E\	.	4E\	.	2.e\	4gny/	.	4E\
4D/	.	4D/	.	.	8a/	4ff\	4D/
.	.	.	.	.	8b/	.	.
!LO:TX:t=P:problem:kreska pseudotaktowa	!	!LO:TX:t=P:problem:kreska pseudotaktowa	!	!	!	!	!LO:TX:t=P:problem:kreska pseudotaktowa
2C/	.	2C/	.	.	4cc\	4ee\	2C/
!	!	!	!	!	!LO:TX:t=P:problem:kreska pseudotaktowa	!LO:TX:t=P:problem:kreska pseudotaktowa	!
.	.	.	.	4f\	4dd\	4dd\	.
=46-	=46-	=46-	=46-	=46-	=46-	=46-	=46-
1c	.	1c	.	2.g\	2.ee\	4cc\	2.c\
.	.	.	.	.	.	4cccny\	.
.	.	.	.	.	.	2.ccc\	.
.	.	.	.	4g\	4ee\	.	4c\
2d\	7:6	2d\	7:6	2f\	2ff\	.	2d\
.	.	.	.	.	.	4bb\	.
*custos:c	*	*custos:c	*	*custos:g	*	*	*
!LO:LB:g=original	!	!LO:LB:g=original	!	!LO:LB:g=original	!	!	!
=47-	=47-	=47-	=47-	=47-	=47-	=47-	=47-
4c\	.	4c\	.	2g\	4ee\	2.ccc\	4c\
4Bny\	.	4Bny\	.	.	4dd\	.	4Bny\
*	*	*	*	*col	*	*	*
4A\	.	4A\	.	1a	4cc\	.	4A\
4G\	.	4G\	.	.	8dd\	4bb\	4G\
.	.	.	.	.	8ee\	.	.
!LO:TX:t=P:problem:kreska pseudotaktowa	!	!LO:TX:t=P:problem:kreska pseudotaktowa	!	!	!	!	!
*	*	*	*	*	*	*	*col
[<2F\	5	[<2F\	5	.	4ff\	4aa\	1F\
!	!	!	!	!	!	!LO:TX:t=P:problem:kreska pseudotaktowa	!
.	.	.	.	.	4ee\	4gg\	.
*	*	*	*	*Xcol	*	*	*xcol
=48-	=48-	=48-	=48-	=48-	=48-	=48-	=48-
2F\]	6	2F\]	6	2A/	4dd\	4ff\	.
.	.	.	.	.	4cc\	4ee\	.
2.G\	.	2.G\	.	2.B/	2.b/	2.dd\	2.G\
4D/	.	4D/	.	4A/	4dd\	4ff\	4D/
*	*	*	*	*	*custos:cc#	*	*
!	!	!	!	!	!LO:LB:g=original	!	!
=49-	=49-	=49-	=49-	=49-	=49-	=49-	=49-
!	!	!	!	!	!LO:TX:t=P:problem:LO:N:vis=1	!LO:TX:t=P:problem:kreska pseudotaktowa	!
1.A	#	1.A	#	1.A	1.cc#X	1.ee	1.A
*clefC3	*	*clefC3	*	*	*	*	*
=50-	=50-	=50-	=50-	=50-	=50-	=50-	=50-
!	!	!	!	!	!LO:N:acc=-	!	!
1a	.	1a	.	2.a\	2.ccn\	4ee\	0.r
.	.	.	.	.	.	4aa\	.
.	.	.	.	.	.	2.aa\	.
.	.	.	.	4a\	4cc\	.	.
2b-X\	6	2b-X\	6	2b-X\	2dd\	.	.
.	.	.	.	.	.	4gg\	.
=51-	=51-	=51-	=51-	=51-	=51-	=51-	=51-
4a\	.	4a\	.	4a\	4cc\	2.aa\	.
4g\	.	4g\	.	4g\	4b/	.	.
4f\	.	4f\	.	4f\	4a/	.	.
4e\	.	4e\	.	4e\	8b/	4gg\	.
.	.	.	.	.	8cc\	.	.
2d\	.	2d\	.	2d\	4dd\	4ff\	.
!	!	!	!	!	!	!LO:TX:t=P:problem:kreska pseudotaktowa	!
.	.	.	.	.	4cc\	4ee\	.
=52-	=52-	=52-	=52-	=52-	=52-	=52-	=52-
1g	.	1g	.	2.g\	2.b/	4dd\	0.r
.	.	.	.	.	.	4gg\	.
.	.	.	.	.	.	2.gg\	.
.	.	.	.	4g\	4b/	.	.
2a\	7:6	2a\	7:6	2a\	2cc\	.	.
.	.	.	.	.	.	4ff\	.
=53-	=53-	=53-	=53-	=53-	=53-	=53-	=53-
4g\	.	4g\	.	4g\	4b/	2.gg\	.
4f\	.	4f\	.	4f\	4a/	.	.
4e\	.	4e\	.	4e\	4g/	.	.
4d\	.	4d\	.	4d\	8a/	4ff\	.
.	.	.	.	.	8b/	.	.
!	!	!	!	!LO:TX:t=P:problem:kreska pseudotaktowa	!LO:TX:t=P:problem:kreska pseudotaktowa	!	!
2c/	.	2c/	.	2c/	2cc\	2ee\	.
*clefF4	*	*clefF4	*	*	*	*custos:gg	*
!	!	!	!	!	!	!LO:LB:g=original	!
=54-	=54-	=54-	=54-	=54-	=54-	=54-	=54-
1E	-	1E	-	2e\	4b/	2.gg\	2.E\
.	.	.	.	.	4ee\	.	.
.	.	.	.	2B/	2.ee\	.	.
.	.	.	.	.	.	4gg\	4E\
2F\	7:6	2F\	7:6	2A/	.	2aa\	2F\
.	.	.	.	.	4dd\	.	.
=55-	=55-	=55-	=55-	=55-	=55-	=55-	=55-
4E\	.	4E\	.	2B/	2.ee\	4gg\	4E\
4D/	.	4D/	.	.	.	4ff\	4D/
4C/	.	4C/	.	2c/	.	4ee\	4C/
4BB/	.	4BB/	.	.	4dd\	8ff\	4BB/
.	.	.	.	.	.	8gg\	.
!LO:TX:t=P:problem:kreska pseudotaktowa	!	!LO:TX:t=P:problem:kreska pseudotaktowa	!	!	!	!	!
2AA/	.	2AA/	.	2c/	4cc\	4aa\	2AA/
!	!	!	!	!	!	!LO:TX:t=P:problem:kreska pseudotaktowa	!
.	.	.	.	.	4b/	4gg\	.
=56-	=56-	=56-	=56-	=56-	=56-	=56-	=56-
1D	-	1D	-	2d\	4a/	2.ff\	2.D/
.	.	.	.	.	4dd\	.	.
.	.	.	.	2A/	2.dd\	.	.
.	.	.	.	.	.	4ff\	4D/
2E\	7:6	2E\	7:6	2e\	.	2gg\	2E\
.	.	.	.	.	4cc\	.	.
=57-	=57-	=57-	=57-	=57-	=57-	=57-	=57-
4D/	.	4D/	.	2A/	2.dd\	4ff\	4D/
4C/	.	4C/	.	.	.	4ee\	4C/
4BB/	.	4BB/	.	2.B/	.	4dd\	4BB/
4AA/	.	4AA/	.	.	4cc\	8ee\	4AA/
.	.	.	.	.	.	8ff\	.
!	!	!	!	!	!	!LO:TX:t=P:problem:kreska pseudotaktowa	!
2GG/	.	2GG/	.	.	4b/	2gg\	2GG/
!	!	!	!	!	!LO:TX:t=P:problem:kreska pseudotaktowa	!	!
.	.	.	.	4c/	4a/	.	.
*custos:G	*	*custos:G	*	*	*custos:g	*	*custos:G
!LO:LB:g=original	!	!LO:LB:g=original	!	!	!LO:LB:g=original	!	!LO:LB:g=original
=58-	=58-	=58-	=58-	=58-	=58-	=58-	=58-
1G	.	1G	.	2d\	2.g/	4dd\	2.G\
.	.	.	.	.	.	4gg\	.
.	.	.	.	2d\	.	2.gg\	.
.	.	.	.	.	4b/	.	4G\
2A\	7:6	2A\	7:6	2c/	2cc\	.	2A\
.	.	.	.	.	.	4ff\	.
=59-	=59-	=59-	=59-	=59-	=59-	=59-	=59-
4G\	.	4G\	.	2d\	4b/	2.gg\	4G\
4F\	.	4F\	.	.	4a/	.	4F\
4E\	.	4E\	.	2.e\	4g/	.	4E\
4D/	.	4D/	.	.	8a/	4ff\	4D/
.	.	.	.	.	8b/	.	.
!LO:TX:t=P:problem:kreska pseudotaktowa	!	!LO:TX:t=P:problem:kreska pseudotaktowa	!	!	!LO:TX:t=P:problem:kreska pseudotaktowa	!	!
2C/	.	2C/	.	.	2cc\	4ee\	2C/
!	!	!	!	!	!	!LO:TX:t=P:problem:kreska pseudotaktowa	!
.	.	.	.	4f\	.	4dd\	.
*	*	*	*	*custos:g	*	*	*
!	!	!	!	!LO:LB:g=original	!	!	!
=60-	=60-	=60-	=60-	=60-	=60-	=60-	=60-
4.c\	.	4.c\	.	4.g\	4.e/	4.cc\	4.c\
8B\	.	8B\	.	8g\	8d/	8g/	8B\
4.c\	.	4.c\	.	4e\	4e/	4g/	4c\
.	.	.	.	4c/	4f/	4a/	4A\
8A\	6	8A\	6	.	.	.	.
2G\	.	2G\	.	4d\	4.g/	4.b/	2G\
.	.	.	.	4g\	.	.	.
.	.	.	.	.	16f/	16a/	.
.	.	.	.	.	16g/	16b/	.
*	*	*	*	*	*	*custos:cc	*
!	!	!	!	!	!	!LO:LB:g=original	!
=61-	=61-	=61-	=61-	=61-	=61-	=61-	=61-
4.F\	.	4.F\	.	4.c/	4.a/	4.cc\	4.F\
8E\	.	8E\	.	8e\	8g/	8cc\	8E\
4F\	.	4F\	.	4c/	4a/	4cc\	4F\
4D/	6	4D/	6	4f\	4b/	4dd\	4D/
!LO:TX:t=P:problem:kreska pseudotaktowa	!	!LO:TX:t=P:problem:kreska pseudotaktowa	!	!LO:TX:t=P:problem:kreska pseudotaktowa	!	!	!LO:TX:t=P:problem:kreska pseudotaktowa
2C/	.	2C/	.	2e\	4.cc\	4.ee\	2C/
.	.	.	.	.	16b/	16dd\	.
.	.	.	.	.	16cc\	16ee\	.
=62-	=62-	=62-	=62-	=62-	=62-	=62-	=62-
4.BB-X/	.	4.BB-X/	.	4.d\	4.dd\	4.ff\	4.BB-X/
8AA/	.	8AA/	.	8f\	8cc\	8ff\	8AA/
4BB-X/	.	4BB-X/	.	4B-X/	4dd\	4ff\	4BB-X/
4GG/	6	4GG/	6	4B-/	4ee\	4gg\	4GG/
2FF/	.	2FF/	.	2c/	4.ff\	4.aa\	2FF/
.	.	.	.	.	16ee\	16gg\	.
.	.	.	.	.	16ff\	16aa\	.
=63-	=63-	=63-	=63-	=63-	=63-	=63-	=63-
2GG/	-	2GG/	-	2B-X/	1dd	2bb-X\	2GG/
*col	*	*col	*	*	*	*col	*col
1AA	4#r	1AA	4#r	2A/	.	1ee	1AA
.	.	.	.	4a\	2cc#X\	.	.
!	!	!	!	!LO:TX:t=P:problem:kreska pseudotaktowa	!	!	!
.	.	.	.	4g\	.	.	.
*Xcol	*	*Xcol	*	*	*	*Xcol	*Xcol
=64-	=64-	=64-	=64-	=64-	=64-	=64-	=64-
2.D/	.	2.D/	.	4f\	2dd\	4dd\	2.D/
.	.	.	.	4e\	.	4ee\	.
.	.	.	.	2d\	4aa\	4ff\	.
4E\	.	4E\	.	.	4gg\	4gg\	4E\
2F\	.	2F\	.	2d\	4ff\	2aa\	2F\
.	.	.	.	.	4ee\	.	.
*	*	*	*	*	*custos:dd	*	*
!	!	!	!	!	!LO:LB:g=original	!	!
=65-	=65-	=65-	=65-	=65-	=65-	=65-	=65-
2G\	6 5	2G\	6 5	1e	1dd	2bb-X\	2G\
*col	*	*col	*	*	*	*col	*col
1A	4#r	1A	4#r	.	.	1ee	1A
.	.	.	.	2A/	2cc#X\	.	.
*Xcol	*	*Xcol	*	*	*	*Xcol	*Xcol
=66-	=66-	=66-	=66-	=66-	=66-	=66-	=66-
2D/	.	2D/	.	[1.A	1dd	2dd\	2D/
*col	*	*col	*	*	*	*col	*
1AA	4#r	1AA	4#r	.	.	1ee	1AA
.	.	.	.	.	2cc#X\	.	.
*Xcol	*	*Xcol	*	*	*	*Xcol	*
=67-	=67-	=67-	=67-	=67-	=67-	=67-	=67-
1.D	.	1.D	.	1.A]	1.dd;<	1.dd	1.D
=68||-	=68||-	=68||-	=68||-	=68||-	=68||-	=68||-;	=68||-
0D;	.	0D;	.	0A;	0dd;<	0dd	0D;
==	==	==	==	==	==	==	==
*-	*-	*-	*-	*-	*-	*-	*-
!!!system-decoration: s1[(s2,s3,s4)]s5,s6
!!!RDF**kern: > = above
!!!RDF**kern: < = below
!!!ENC: Filip Voros
!!!END: 2022-11-13
!!!ENC: Jan Barakat
!!!END: 2022-12-03
!!!YEC: Copyright 2022 Narodowy Instytut Fryderyka Chopina (https://polishscores.org)
!!!YEM: License CC-BY-4.0 (https://creativecommons.org/licenses/by/4.0)
